icons/logo-github-24.svg

<svg width="74" height="24" viewBox="0 0 74 24" fill="none" xmlns="http://www.w3.org/2000/svg">
<g clip-path="url(#clip0_997_6776)">
<path d="M8.47189 3.08807C12.6968 3.08807 15.2493 4.89257 16.0635 7.92925L12.2788 8.83145C11.8166 7.18108 10.4963 6.27886 8.47189 6.27886C5.45724 6.27886 3.82879 8.25922 3.82877 12.022C3.82877 15.7848 5.41319 17.8094 8.38381 17.8094C10.8861 17.8094 12.463 16.403 12.7074 13.9804H8.07578V10.8118H16.5258V12.8142C16.5258 18.0734 13.467 21 8.31787 21C3.21273 21 0 17.5012 0 12.022C3.3055e-05 6.54283 3.27876 3.08807 8.47189 3.08807Z" fill="#010409"/>
<path d="M51.6196 15.741C51.6197 17.2593 52.3019 18.0956 53.6002 18.0956C55.0965 18.0956 56.2409 16.7091 56.2409 14.8167V8.30322H59.7395V20.6701H56.2409V18.5795C55.5807 19.9218 53.9963 20.89 52.3019 20.89C49.5953 20.89 48.121 19.3937 48.121 16.6651V8.30322H51.6196V15.741Z" fill="#010409"/>
<path fill-rule="evenodd" clip-rule="evenodd" d="M65.0625 10.5697C65.7747 9.0734 67.3812 8.01712 69.0015 8.01712C72.3763 8.01713 74.1585 10.3497 74.0405 14.4646C74.1585 18.5355 72.3102 20.89 69.0015 20.89C67.3151 20.89 65.7748 19.9218 65.0406 18.5355V20.6701H61.5637V3.41827H65.0625V10.5697ZM67.7691 10.9439C66.3249 10.9439 65.1806 12.3523 65.0625 14.2887V14.4868C65.1806 16.4891 66.3249 17.9634 67.7691 17.9635C69.5816 17.9635 70.5719 16.6211 70.4538 14.4646C70.5719 12.2862 69.5815 10.9439 67.7691 10.9439Z" fill="#010409"/>
<path d="M21.3227 20.6701H17.846V8.30322H21.3227V20.6701Z" fill="#010409"/>
<path d="M28.3272 8.30324H30.902V11.2079H28.3272V16.8192C28.3272 17.5013 28.6354 17.7654 29.3175 17.7654H30.902V20.6701H28.0633C25.7527 20.6701 24.8506 19.6797 24.8506 17.5892V11.2079H22.65V8.30324H24.8506V5.83873L28.3272 5.0246V8.30324Z" fill="#010409"/>
<path d="M36.11 3.41827V10.4157H42.6675V3.41827H46.4084V20.6701H42.6675V13.7605H36.11V20.6701H32.3693V3.41827H36.11Z" fill="#010409"/>
<path d="M19.5844 3C20.7507 3.00004 21.6528 3.90239 21.6528 5.06863C21.6528 6.23483 20.7506 7.137 19.5844 7.13703C18.4182 7.13703 17.5159 6.23485 17.5158 5.06863C17.5158 3.90237 18.4182 3 19.5844 3Z" fill="#010409"/>
</g>
<defs>
<clipPath id="clip0_997_6776">
<rect width="74" height="24" fill="white"/>
</clipPath>
</defs>
</svg>

<svg xmlns="http://www.w3.org/2000/svg" width="74" height="24" viewBox="0 0 74 24"><path d="M8.472 3.088c4.225 0 6.777 1.805 7.592 4.841l-3.785.902c-.462-1.65-1.783-2.552-3.807-2.552-3.015 0-4.643 1.98-4.643 5.743s1.584 5.787 4.555 5.787c2.502 0 4.079-1.406 4.323-3.829H8.076v-3.168h8.45v2.002c0 5.26-3.059 8.186-8.208 8.186C3.213 21 0 17.501 0 12.022c0-5.48 3.279-8.934 8.472-8.934M51.62 15.741c0 1.518.682 2.355 1.98 2.355 1.496 0 2.64-1.387 2.64-3.28V8.304h3.5V20.67h-3.5v-2.09c-.66 1.342-2.244 2.31-3.938 2.31-2.707 0-4.181-1.496-4.181-4.225V8.303h3.499z"/><path fill-rule="evenodd" d="M65.063 10.57C65.775 9.073 67.38 8.017 69 8.017c3.375 0 5.157 2.333 5.04 6.448.118 4.07-1.73 6.425-5.04 6.425-1.686 0-3.226-.968-3.96-2.355v2.135h-3.477V3.418h3.499zm2.706.374c-1.444 0-2.588 1.408-2.707 3.345v.198c.119 2.002 1.263 3.476 2.707 3.476 1.813 0 2.803-1.342 2.685-3.498.118-2.179-.872-3.521-2.685-3.521"/><path d="M21.323 20.67h-3.477V8.303h3.477zm7.004-12.367h2.575v2.905h-2.575v5.611c0 .682.308.946.99.946h1.585v2.905h-2.839c-2.31 0-3.212-.99-3.212-3.08v-6.382H22.65V8.303h2.2V5.84l3.477-.814zm7.783-4.885v6.998h6.557V3.418h3.741V20.67h-3.74v-6.91H36.11v6.91h-3.74V3.418zM19.584 3c1.167 0 2.069.902 2.069 2.069a2.04 2.04 0 0 1-2.069 2.068 2.04 2.04 0 0 1-2.068-2.068c0-1.167.902-2.069 2.068-2.069"/></svg>
